.local/share/icons/Gruvbox-Plus-Dark/panel/16/gnome-pie-symbolic.svg

<svg xmlns="http://www.w3.org/2000/svg" width="16" height="16" version="1.1">
 <defs>
  <style id="current-color-scheme" type="text/css">
   .ColorScheme-Text { color:#ebdbb2; } .ColorScheme-Highlight { color:#458588; }
  </style>
 </defs>
 <path style="fill:currentColor" class="ColorScheme-Text" d="M 10.212891 1.0058594 C 10.06769 0.99571185 9.9235458 0.9970099 9.7792969 1.0078125 C 8.8190649 1.0798299 7.9108944 1.6126158 7.3964844 2.5117188 C 6.5742 3.9501808 7.0730854 5.7811453 8.5117188 6.6035156 C 9.9503522 7.4258 11.781317 6.9267433 12.603516 5.4882812 C 13.425715 4.0498195 12.926914 2.2188546 11.488281 1.3964844 L 11.488281 1.3945312 C 11.083184 1.1632404 10.648491 1.0363019 10.212891 1.0058594 z M 3.8535156 3.0058594 C 3.2133014 3.0538635 2.6061809 3.4084817 2.2636719 4.0078125 C 1.7155454 4.9666937 2.0489314 6.1882816 3.0078125 6.7363281 C 3.9666938 7.2846145 5.1882817 6.9508288 5.7363281 5.9921875 C 6.2843746 5.0330663 5.9508286 3.8117982 4.9921875 3.2636719 C 4.632557 3.0581345 4.2376282 2.977057 3.8535156 3.0058594 z M 2.3886719 8.0058594 C 1.9086426 8.041856 1.4541162 8.3059021 1.1972656 8.7558594 C 0.78615476 9.4750409 1.0368278 10.391773 1.7558594 10.802734 C 2.474891 11.213695 3.3916986 10.962572 3.8027344 10.244141 C 4.2137704 9.5249582 3.9631722 8.6089765 3.2441406 8.1972656 C 2.9745413 8.0435302 2.6767196 7.9841115 2.3886719 8.0058594 z M 11.853516 8.0058594 C 11.212667 8.0538624 10.606097 8.408567 10.263672 9.0078125 C 9.7156296 9.966285 10.04934 11.188287 11.007812 11.736328 C 11.966285 12.28437 13.188287 11.950659 13.736328 10.992188 C 14.28437 10.033716 13.951459 8.8117133 12.992188 8.2636719 C 12.63296 8.0580563 12.237545 7.9767372 11.853516 8.0058594 z M 8.5976562 12.001953 C 8.0140584 11.963693 7.4384529 12.273032 7.1601562 12.828125 C 6.788844 13.569249 7.0877508 14.468532 7.828125 14.839844 C 8.5684992 15.211157 9.4685327 14.912248 9.8398438 14.171875 C 10.211157 13.431502 9.912256 12.531468 9.171875 12.160156 C 8.9865934 12.067146 8.7919388 12.014705 8.5976562 12.001953 z M 3.9257812 13.003906 C 3.605761 13.027896 3.3040187 13.204012 3.1328125 13.503906 C 2.8588427 13.983071 3.0245423 14.595238 3.5039062 14.869141 C 3.9830702 15.143044 4.5951708 14.975258 4.8691406 14.496094 C 5.1430438 14.01693 4.9753242 13.404762 4.4960938 13.130859 C 4.3162907 13.028228 4.1177135 12.989245 3.9257812 13.003906 z"/>
</svg>

<svg width="16" height="16" version="1.1" xmlns="http://www.w3.org/2000/svg">
  <defs>
    <style id="current-color-scheme" type="text/css">.ColorScheme-Text { color:#ebdbb2; } .ColorScheme-Highlight { color:#458588; } .ColorScheme-NeutralText { color:#fe8019; } .ColorScheme-PositiveText { color:#689d6a; } .ColorScheme-NegativeText { color:#fb4934; }</style>
  </defs>
  <path class="ColorScheme-Text" d="m10.21 1.006c-0.1452-0.01015-0.2893-0.00885-0.4336 0.001953-0.9602 0.07202-1.868 0.6048-2.383 1.504-0.8223 1.438-0.3234 3.269 1.115 4.092 1.439 0.8223 3.27 0.3232 4.092-1.115 0.8222-1.438 0.3234-3.269-1.115-4.092v-0.001953c-0.4051-0.2313-0.8398-0.3582-1.275-0.3887zm-6.359 2c-0.6402 0.048-1.247 0.4026-1.59 1.002-0.5481 0.9589-0.2147 2.18 0.7441 2.729 0.9589 0.5483 2.18 0.2145 2.729-0.7441 0.548-0.9591 0.2145-2.18-0.7441-2.729-0.3596-0.2055-0.7546-0.2866-1.139-0.2578zm-1.465 5c-0.48 0.036-0.9346 0.3-1.191 0.75-0.4111 0.7192-0.1604 1.636 0.5586 2.047s1.636 0.1598 2.047-0.5586c0.411-0.7192 0.1604-1.635-0.5586-2.047-0.2696-0.1537-0.5674-0.2132-0.8555-0.1914zm9.465 0c-0.6408 0.048-1.247 0.4027-1.59 1.002-0.548 0.9585-0.2143 2.18 0.7441 2.729 0.9585 0.548 2.18 0.2143 2.729-0.7441 0.548-0.9585 0.2151-2.18-0.7441-2.729-0.3592-0.2056-0.7546-0.2869-1.139-0.2578zm-3.256 3.996c-0.5836-0.03826-1.159 0.2711-1.438 0.8262-0.3713 0.7411-0.07241 1.64 0.668 2.012 0.7404 0.3713 1.64 0.0724 2.012-0.668 0.3713-0.7404 0.07241-1.64-0.668-2.012-0.1853-0.09301-0.3799-0.1455-0.5742-0.1582zm-4.672 1.002c-0.32 0.02399-0.6218 0.2001-0.793 0.5-0.274 0.4792-0.1083 1.091 0.3711 1.365 0.4792 0.2739 1.091 0.1061 1.365-0.373 0.2739-0.4792 0.1062-1.091-0.373-1.365-0.1798-0.1026-0.3784-0.1416-0.5703-0.127z" fill="currentColor"/>
</svg>
